src/assets/icons/search.svg

<svg height="19" viewBox="0 0 19 19" width="19" xmlns="http://www.w3.org/2000/svg"><path d="m108.684286 651.201646-4.659682-4.665295c2.342857-3.049383 2.108571-7.454046-.702858-10.242798-1.535873-1.537723-3.5142854-2.293553-5.5187299-2.293553s-3.9828572.75583-5.5187303 2.293553c-3.0457144 3.049383-3.0457144 8.001372 0 11.050754 1.5358731 1.537723 3.5142858 2.293553 5.5187303 2.293553 1.6660318 0 3.3320639-.521262 4.7117459-1.589849l4.685715 4.639232c.208254.208505.468571.312757.75492.312757.260318 0 .546667-.104252.754921-.312757.390476-.390947.390476-1.068587-.026032-1.485597zm-11.0346731-4.007202c-1.493813 0-2.8610318-.582001-3.9244241-1.619482-2.1521036-2.150875-2.1521036-5.668189 0-7.844368 1.0380735-1.037481 2.4306111-1.619483 3.9244241-1.619483 1.4938131 0 2.8610321.582002 3.9244241 1.619483s1.620407 2.429223 1.620407 3.922184c0 1.49296-.582333 2.859399-1.620407 3.922184-1.038073 1.062785-2.4559299 1.619482-3.9244241 1.619482z" fill="#f00" transform="translate(-90 -634)"/></svg>

<?xml version="1.0" encoding="UTF-8"?>
<svg width="19px" height="19px" viewBox="0 0 19 19" version="1.1" xmlns="http://www.w3.org/2000/svg" xmlns:xlink="http://www.w3.org/1999/xlink">
    <title>Shape@1,5x</title>
    <g id="Page-1" stroke="none" stroke-width="1" fill="none" fill-rule="evenodd">
        <g id="Guide" transform="translate(-90.000000, -634.000000)" fill="#FF0000" fill-rule="nonzero">
            <path d="M108.684286,651.201646 L104.024604,646.536351 C106.367461,643.486968 106.133175,639.082305 103.321746,636.293553 C101.785873,634.75583 99.8074606,634 97.8030161,634 C95.7985716,634 93.8201589,634.75583 92.2842858,636.293553 C89.2385714,639.342936 89.2385714,644.294925 92.2842858,647.344307 C93.8201589,648.88203 95.7985716,649.63786 97.8030161,649.63786 C99.4690479,649.63786 101.13508,649.116598 102.514762,648.048011 L107.200477,652.687243 C107.408731,652.895748 107.669048,653 107.955397,653 C108.215715,653 108.502064,652.895748 108.710318,652.687243 C109.100794,652.296296 109.100794,651.618656 108.684286,651.201646 Z M97.6496129,647.194444 C96.1557999,647.194444 94.7885811,646.612443 93.7251888,645.574962 C91.5730852,643.424087 91.5730852,639.906773 93.7251888,637.730594 C94.7632623,636.693113 96.1557999,636.111111 97.6496129,636.111111 C99.143426,636.111111 100.510645,636.693113 101.574037,637.730594 C102.637429,638.768075 103.194444,640.159817 103.194444,641.652778 C103.194444,643.145738 102.612111,644.512177 101.574037,645.574962 C100.535964,646.637747 99.1181071,647.194444 97.6496129,647.194444 Z" id="Shape"></path>
        </g>
    </g>
</svg>
